X: 1
T: Far am bi mi fh\`in (bidh mo dh\`ochas ann)
T: Where I will be (my hope will be there)
T: the Drunken Piper
C: trad. Scotland, Ireland
R: reel, march
S: Fiddle Hell Online 2021-11-2
Z: 2021 John Chambers <jc:trillian.mit.edu>
M: 4/4
L: 1/8
K: Amix
[| AAAB e3g | edBd e2g2 | GGGB d3e | dBGB d2e2 | AAAB e3g |
edBd e2a2 | gged eged | B2A2 A2 |] aaag e2a2 | edef g2a2 | GGGB d3e |
dBGB d2e2 | aaag e2a2 | edef g2a2 | gged eged | B2A2 A4 |]
